X: 1
T: Lisheen, The
M: 12/8
L: 1/8
R: slide
K: Gmaj
|: BcB BAB G2B A2G | BcB BAG A2B cBA |
BcB BAB G3 GBd | g2e dBG A2B cBA :|
|: ~g2g ~d2d ege d^cd | g3 aga bab afd |
~g2g ~d2d ege d^cd | g3 aga bgf g3 :|
